X:266
T:Archie Neil Chisholm
O:england
M:C|
L:1/8
C:Brenda Stubbert
S:Strathsphey & Reel society of New Hampshire 8.6
R:March
K:Em
g|"Am"e2d<BA2B<G|A2e2e2f<g|"G"B2A<B {D}G2 E<D|E2G2 "Em"+G,2G2+g2|
"Am"e2d<BA2B<G|A2e2e2f<g|e>dB<g "Em"e2d<B|"Am"A4A3:|
g|"Am"e2 d<eg2 f<g|{g}a2e2e2e<a|"G"g2dge2d<B|d2G2 "Em"G2g2|
|1 "Am"e2 d<eg2 f<g|{g}a2e2e2e<a|"G"g>ed<g "Em"e2d<B|"Am"a4a3:|
|2 "Am"e2d<BA2B<G|A2e2e2f<g|"G"e>dB<g "Em"e2d<B|"Am"A4A3||


